resources/svg/major-wearable.svg

<svg xmlns="http://www.w3.org/2000/svg" viewBox="0 0 20 20" fill="currentColor"><path fill-rule="evenodd" d="M6 4a3 3 0 0 0-3 3v6a3 3 0 0 0 3 3v2.5a1.5 1.5 0 0 0 1.5 1.5h5a1.5 1.5 0 0 0 1.5-1.5v-2.5a3 3 0 0 0 3-3v-1a1 1 0 0 0 1-1v-2a1 1 0 0 0-1-1v-1a3 3 0 0 0-3-3v-2.5a1.5 1.5 0 0 0-1.5-1.5h-5a1.5 1.5 0 0 0-1.5 1.5v2.5zm2 0v-2h4v2h-4zm4 12v2h-4v-2h4zm-6-10a1 1 0 0 0-1 1v6a1 1 0 0 0 1 1h8a1 1 0 0 0 1-1v-6a1 1 0 0 0-1-1h-8z"/></svg>

<svg xmlns="http://www.w3.org/2000/svg" viewBox="0 0 20 20" fill="currentColor"><path fill-rule="evenodd" d="M6 4a3 3 0 0 0-3 3v6a3 3 0 0 0 3 3v2.5A1.5 1.5 0 0 0 7.5 20h5a1.5 1.5 0 0 0 1.5-1.5V16a3 3 0 0 0 3-3v-1a1 1 0 0 0 1-1V9a1 1 0 0 0-1-1V7a3 3 0 0 0-3-3V1.5A1.5 1.5 0 0 0 12.5 0h-5A1.5 1.5 0 0 0 6 1.5V4zm2 0V2h4v2H8zm4 12v2H8v-2h4zM6 6a1 1 0 0 0-1 1v6a1 1 0 0 0 1 1h8a1 1 0 0 0 1-1V7a1 1 0 0 0-1-1H6z"/></svg>
